**harm	**harte	**timestamp	**phrase	**leadinstrument	**kern
*M4/4	*M4/4	*	*	*	*
*E-:	*E-:	*	*	*	*E-:
1r;	N	0	.	r	1r;
=1	=1	=1	=1	=1	=1
*>C_intro	*>C_intro	*>C_intro	*>C_intro	*>C_intro	*>C_intro
1r	N	0.325	newline	r	1r
=2	=2	=2	=2	=2	=2
1r	N	2.288	.	r	1r
=3	=3	=3	=3	=3	=3
1r	N	4.25	.	r	1r
=4	=4	=4	=4	=4	=4
1r	N	6.213	.	r	1r
=5	=5	=5	=5	=5	=5
1V	B-:maj	8.176	newline	r	1B- 1dd 1ff
=6	=6	=6	=6	=6	=6
1Vd	B-:maj/b7	10.114	.	r	1b- 1dd 1ff
=7	=7	=7	=7	=7	=7
1iii	G:min	12.052	.	r	1G 1b- 1dd
=8	=8	=8	=8	=8	=8
1II	F:maj	13.991	.	r	1F 1a 1cc
=9	=9	=9	=9	=9	=9
*>A_verse	*>A_verse	*>A_verse	*>A_verse	*>A_verse	*>A_verse
1I	E-:maj	15.929	newline	voice	1E- 1g 1b-
=10	=10	=10	=10	=10	=10
1I	E-:maj	17.869	.	voice	1E- 1g 1b-
=11	=11	=11	=11	=11	=11
1VI	C:maj	19.809	.	voice	1C 1e 1g
=12	=12	=12	=12	=12	=12
1VI	C:maj	21.749	.	voice	1C 1e 1g
=13	=13	=13	=13	=13	=13
1IV	A-:maj	23.689	.	voice	1A- 1cc 1ee-
=14	=14	=14	=14	=14	=14
1V	B-:maj	25.629	.	voice	1B- 1dd 1ff
=15	=15	=15	=15	=15	=15
1IV	A-:maj	27.569	.	voice	1A- 1cc 1ee-
=16	=16	=16	=16	=16	=16
1V	B-:maj	29.51	.	voice	1B- 1dd 1ff
=17	=17	=17	=17	=17	=17
1I	E-:maj	31.45	newline	voice	1E- 1g 1b-
=18	=18	=18	=18	=18	=18
1I	E-:maj	33.398	.	voice	1E- 1g 1b-
=19	=19	=19	=19	=19	=19
1VI	C:maj	35.346	.	voice	1C 1e 1g
=20	=20	=20	=20	=20	=20
1VI	C:maj	37.294	.	voice	1C 1e 1g
=21	=21	=21	=21	=21	=21
1IV	A-:maj	39.242	.	voice	1A- 1cc 1ee-
=22	=22	=22	=22	=22	=22
1V	B-:maj	41.19	.	voice	1B- 1dd 1ff
=23	=23	=23	=23	=23	=23
1IV	A-:maj	43.138	.	voice	1A- 1cc 1ee-
=24	=24	=24	=24	=24	=24
1V	B-:maj	45.086	.	voice	1B- 1dd 1ff
=25	=25	=25	=25	=25	=25
1IV	A-:maj	47.035	.	voice	1A- 1cc 1ee-
=26	=26	=26	=26	=26	=26
1V	B-:maj	48.983	.	voice	1B- 1dd 1ff
=27	=27	=27	=27	=27	=27
*>B_chorus	*>B_chorus	*>B_chorus	*>B_chorus	*>B_chorus	*>B_chorus
1II	F:maj	50.931	newline	voice	1F 1a 1cc
=28	=28	=28	=28	=28	=28
1vii	D:min	52.885	.	voice	1D 1f 1a
=29	=29	=29	=29	=29	=29
1V	B-:maj	54.839	.	voice	1B- 1dd 1ff
=30	=30	=30	=30	=30	=30
1VI	C:maj	56.793	.	voice	1C 1e 1g
=31	=31	=31	=31	=31	=31
1II	F:maj	58.746	newline	voice	1F 1a 1cc
=32	=32	=32	=32	=32	=32
1vii	D:min	60.691	.	voice	1D 1f 1a
=33	=33	=33	=33	=33	=33
1V	B-:maj	62.636	.	voice	1B- 1dd 1ff
=34	=34	=34	=34	=34	=34
1VI	C:maj	64.581	.	voice	1C 1e 1g
=35	=35	=35	=35	=35	=35
1V	B-:maj	66.526	newline	voice	1B- 1dd 1ff
=36	=36	=36	=36	=36	=36
1V	B-:maj	68.485	.	voice	1B- 1dd 1ff
=37	=37	=37	=37	=37	=37
*>A_verse	*>A_verse	*>A_verse	*>A_verse	*>A_verse	*>A_verse
1I	E-:maj	70.445	newline	voice	1E- 1g 1b-
=38	=38	=38	=38	=38	=38
1I	E-:maj	72.384	.	voice	1E- 1g 1b-
=39	=39	=39	=39	=39	=39
1VI	C:maj	74.324	.	voice	1C 1e 1g
=40	=40	=40	=40	=40	=40
1VI	C:maj	76.264	.	voice	1C 1e 1g
=41	=41	=41	=41	=41	=41
1IV	A-:maj	78.203	.	voice	1A- 1cc 1ee-
=42	=42	=42	=42	=42	=42
1V	B-:maj	80.143	.	voice	1B- 1dd 1ff
=43	=43	=43	=43	=43	=43
1IV	A-:maj	82.082	.	voice	1A- 1cc 1ee-
=44	=44	=44	=44	=44	=44
1V	B-:maj	84.022	.	voice	1B- 1dd 1ff
=45	=45	=45	=45	=45	=45
1I	E-:maj	85.962	newline	voice	1E- 1g 1b-
=46	=46	=46	=46	=46	=46
1I	E-:maj	87.909	.	voice	1E- 1g 1b-
=47	=47	=47	=47	=47	=47
1VI	C:maj	89.857	.	voice	1C 1e 1g
=48	=48	=48	=48	=48	=48
1VI	C:maj	91.805	.	voice	1C 1e 1g
=49	=49	=49	=49	=49	=49
1IV	A-:maj	93.753	.	voice	1A- 1cc 1ee-
=50	=50	=50	=50	=50	=50
1V	B-:maj	95.701	.	voice	1B- 1dd 1ff
=51	=51	=51	=51	=51	=51
1IV	A-:maj	97.649	.	voice	1A- 1cc 1ee-
=52	=52	=52	=52	=52	=52
1V	B-:maj	99.596	.	voice	1B- 1dd 1ff
=53	=53	=53	=53	=53	=53
1IV	A-:maj	101.544	.	voice	1A- 1cc 1ee-
=54	=54	=54	=54	=54	=54
1V	B-:maj	103.492	.	voice	1B- 1dd 1ff
=55	=55	=55	=55	=55	=55
*>B_chorus	*>B_chorus	*>B_chorus	*>B_chorus	*>B_chorus	*>B_chorus
1II	F:maj	105.44	newline	voice	1F 1a 1cc
=56	=56	=56	=56	=56	=56
1vii	D:min	107.386	.	voice	1D 1f 1a
=57	=57	=57	=57	=57	=57
1V	B-:maj	109.331	.	voice	1B- 1dd 1ff
=58	=58	=58	=58	=58	=58
1VI	C:maj	111.277	.	voice	1C 1e 1g
=59	=59	=59	=59	=59	=59
1II	F:maj	113.222	newline	voice	1F 1a 1cc
=60	=60	=60	=60	=60	=60
1vii	D:min	115.178	.	voice	1D 1f 1a
=61	=61	=61	=61	=61	=61
1V	B-:maj	117.134	.	voice	1B- 1dd 1ff
=62	=62	=62	=62	=62	=62
1VI	C:maj	119.091	.	voice	1C 1e 1g
=63	=63	=63	=63	=63	=63
*>D_bridge	*>D_bridge	*>D_bridge	*>D_bridge	*>D_bridge	*>D_bridge
1II	F:maj	121.047	newline	voice	1F 1a 1cc
=64	=64	=64	=64	=64	=64
1-VII	D-:maj	122.99	.	voice	1D- 1f 1a-
=65	=65	=65	=65	=65	=65
1II	F:maj	124.933	.	voice	1F 1a 1cc
=66	=66	=66	=66	=66	=66
1-VII	D-:maj	126.877	.	voice	1D- 1f 1a-
=67	=67	=67	=67	=67	=67
1-III	G-:maj	128.82	newline	voice	1G- 1b- 1dd-
=68	=68	=68	=68	=68	=68
1-IIId	G-:sus4/b7	130.761	.	voice	1g- 1b- 1dd-
=69	=69	=69	=69	=69	=69
1-IIId	G-:sus4/b7	132.702	.	voice	1g- 1b- 1dd-
=70	=70	=70	=70	=70	=70
1-IIId	G-:sus4/b7	134.643	.	voice	1g- 1b- 1dd-
=71	=71	=71	=71	=71	=71
1r	N	136.583	newline	voice	1r
=72	=72	=72	=72	=72	=72
1r	N	138.525	.	voice	1r
=73	=73	=73	=73	=73	=73
1r	N	140.467	.	voice	1r
=74	=74	=74	=74	=74	=74
1r	N	142.409	.	voice	1r
=75	=75	=75	=75	=75	=75
*>A_verse	*>A_verse	*>A_verse	*>A_verse	*>A_verse	*>A_verse
1I	E-:maj	144.351	newline	voice	1E- 1g 1b-
=76	=76	=76	=76	=76	=76
1I	E-:maj	146.301	.	voice	1E- 1g 1b-
=77	=77	=77	=77	=77	=77
1VI	C:maj	148.25	.	voice	1C 1e 1g
=78	=78	=78	=78	=78	=78
1VI	C:maj	150.199	.	voice	1C 1e 1g
=79	=79	=79	=79	=79	=79
1IV	A-:maj	152.148	.	voice	1A- 1cc 1ee-
=80	=80	=80	=80	=80	=80
1V	B-:maj	154.098	.	voice	1B- 1dd 1ff
=81	=81	=81	=81	=81	=81
1IV	A-:maj	156.047	.	voice	1A- 1cc 1ee-
=82	=82	=82	=82	=82	=82
1V	B-:maj	157.996	.	voice	1B- 1dd 1ff
=83	=83	=83	=83	=83	=83
1I	E-:maj	159.946	newline	voice	1E- 1g 1b-
=84	=84	=84	=84	=84	=84
1I	E-:maj	161.891	.	voice	1E- 1g 1b-
=85	=85	=85	=85	=85	=85
1VI	C:maj	163.837	.	voice	1C 1e 1g
=86	=86	=86	=86	=86	=86
1VI	C:maj	165.782	.	voice	1C 1e 1g
=87	=87	=87	=87	=87	=87
1IV	A-:maj	167.728	.	voice	1A- 1cc 1ee-
=88	=88	=88	=88	=88	=88
1V	B-:maj	169.674	.	voice	1B- 1dd 1ff
=89	=89	=89	=89	=89	=89
1IV	A-:maj	171.619	.	voice	1A- 1cc 1ee-
=90	=90	=90	=90	=90	=90
1V	B-:maj	173.565	.	voice	1B- 1dd 1ff
=91	=91	=91	=91	=91	=91
1IV	A-:maj	175.51	.	voice	1A- 1cc 1ee-
=92	=92	=92	=92	=92	=92
1V	B-:maj	177.456	.	voice	1B- 1dd 1ff
=93	=93	=93	=93	=93	=93
*>B_chorus	*>B_chorus	*>B_chorus	*>B_chorus	*>B_chorus	*>B_chorus
1II	F:maj	179.401	newline	voice	1F 1a 1cc
=94	=94	=94	=94	=94	=94
1vii	D:min	181.35	.	voice	1D 1f 1a
=95	=95	=95	=95	=95	=95
1V	B-:maj	183.299	.	voice	1B- 1dd 1ff
=96	=96	=96	=96	=96	=96
1VI	C:maj	185.248	.	voice	1C 1e 1g
=97	=97	=97	=97	=97	=97
1II	F:maj	187.197	newline	voice	1F 1a 1cc
=98	=98	=98	=98	=98	=98
1vii	D:min	189.138	.	voice	1D 1f 1a
=99	=99	=99	=99	=99	=99
1V	B-:maj	191.078	.	voice	1B- 1dd 1ff
=100	=100	=100	=100	=100	=100
1VI	C:maj	193.019	.	voice	1C 1e 1g
=101	=101	=101	=101	=101	=101
*>B_chorus	*>B_chorus	*>B_chorus	*>B_chorus	*>B_chorus	*>B_chorus
1II	F:maj	194.96	newline	voice	1F 1a 1cc
=102	=102	=102	=102	=102	=102
1vii	D:min	196.912	.	voice	1D 1f 1a
=103	=103	=103	=103	=103	=103
1V	B-:maj	198.864	.	voice	1B- 1dd 1ff
=104	=104	=104	=104	=104	=104
1VI	C:maj	200.816	.	voice	1C 1e 1g
=105	=105	=105	=105	=105	=105
1II	F:maj	202.768	newline	voice	1F 1a 1cc
=106	=106	=106	=106	=106	=106
1vii	D:min	204.717	.	voice	1D 1f 1a
=107	=107	=107	=107	=107	=107
1V	B-:maj	206.666	.	voice	1B- 1dd 1ff
=108	=108	=108	=108	=108	=108
1VI	C:maj	208.614	.	voice	1C 1e 1g
=109	=109	=109	=109	=109	=109
*>_fadeout	*>_fadeout	*>_fadeout	*>_fadeout	*>_fadeout	*>_fadeout
1II	F:maj	210.563	newline	voice	1F 1a 1cc
=110	=110	=110	=110	=110	=110
1vii	D:min	212.37	.	voice	1D 1f 1a
=111	=111	=111	=111	=111	=111
1V	B-:maj	214.177	.	voice	1B- 1dd 1ff
=112	=112	=112	=112	=112	=112
1VI	C:maj	215.985	.	voice	1C 1e 1g
=113	=113	=113	=113	=113	=113
1II	F:maj	217.792	.	voice	1F 1a 1cc
=114	=114	=114	=114	=114	=114
1vii	D:min	219.599	.	voice	1D 1f 1a
=115	=115	=115	=115	=115	=115
1V	B-:maj	221.406	.	voice	1B- 1dd 1ff
1r;	N	223.213	.	r	1r;
1r;	N	226.56	.	r	1r;
*-	*-	*-	*-	*-	*-
!!!OTL: Dance Away
!!!COC: Roxy Music
!!!BillboardChartDate: 1979/05/19, 1979/06/02
!!!BillboardPeak: 44, 44
!!!BillboardWeeksOnChart: 9, 9
!!!SampleTargetRank: 64, 48
!!!SampleActualRank: 65, 49
!!!SampleID#: 568, 846
!!!RDF**harmony: **recip + pitch class of root + harmonic quality
!!!RDF**harte: Chris Harte's syntax, used by MIREX
!!!RDF**phrase: newline = linebreak in original McGill transcription
!!!RDF**timestamp: McGill audio timestamp in seconds
!!!RDF**leadinstrument: original McGill primary instrumentation annotation
!!!RDT: 2017/01/12/
!!!ENC: Nathaniel Condit-Schultz
!!!EST: Awating manual error checking and editing.
